; G-Code generated by Simplify3D(R) Version 4.1.2
; Dec 1, 2022 at 9:33:59 PM
; Settings Summary
;   processName,Llanta
;   applyToModels,Llanta
;   profileName,PETG timer 0.3 (modified)
;   profileVersion,2022-10-21 10:48:26
;   baseProfile,Default (modified)
;   printMaterial,PLA
;   printQuality,High
;   printExtruders,
;   extruderName,Primary Extruder
;   extruderToolheadNumber,1
;   extruderDiameter,0.6
;   extruderAutoWidth,1
;   extruderWidth,0.72
;   extrusionMultiplier,0.8
;   extruderUseRetract,1
;   extruderRetractionDistance,6
;   extruderExtraRestartDistance,0
;   extruderRetractionZLift,0
;   extruderRetractionSpeed,2400
;   extruderUseCoasting,0
;   extruderCoastingDistance,0.2
;   extruderUseWipe,0
;   extruderWipeDistance,5
;   primaryExtruder,0
;   layerHeight,0.4
;   topSolidLayers,5
;   bottomSolidLayers,5
;   perimeterOutlines,3
;   printPerimetersInsideOut,1
;   startPointOption,2
;   startPointOriginX,0
;   startPointOriginY,0
;   sequentialIslands,0
;   spiralVaseMode,0
;   firstLayerHeightPercentage,100
;   firstLayerWidthPercentage,100
;   firstLayerUnderspeed,0.5
;   useRaft,0
;   raftExtruder,0
;   raftTopLayers,3
;   raftBaseLayers,2
;   raftOffset,3
;   raftSeparationDistance,0.14
;   raftTopInfill,100
;   aboveRaftSpeedMultiplier,0.3
;   useSkirt,1
;   skirtExtruder,0
;   skirtLayers,2
;   skirtOutlines,2
;   skirtOffset,4
;   usePrimePillar,0
;   primePillarExtruder,999
;   primePillarWidth,12
;   primePillarLocation,7
;   primePillarSpeedMultiplier,1
;   useOozeShield,0
;   oozeShieldExtruder,999
;   oozeShieldOffset,2
;   oozeShieldOutlines,1
;   oozeShieldSidewallShape,1
;   oozeShieldSidewallAngle,30
;   oozeShieldSpeedMultiplier,1
;   infillExtruder,0
;   internalInfillPattern,Full Honeycomb
;   externalInfillPattern,Rectilinear
;   infillPercentage,50
;   outlineOverlapPercentage,15
;   infillExtrusionWidthPercentage,100
;   minInfillLength,5
;   infillLayerInterval,1
;   internalInfillAngles,0,120,-120
;   overlapInternalInfillAngles,0
;   externalInfillAngles,45,-45
;   generateSupport,1
;   supportExtruder,0
;   supportInfillPercentage,40
;   supportExtraInflation,0
;   supportBaseLayers,1
;   denseSupportExtruder,0
;   denseSupportLayers,0
;   denseSupportInfillPercentage,70
;   supportLayerInterval,1
;   supportHorizontalPartOffset,0.3
;   supportUpperSeparationLayers,1
;   supportLowerSeparationLayers,1
;   supportType,0
;   supportGridSpacing,4
;   maxOverhangAngle,45
;   supportAngles,0
;   temperatureName,Primary Extruder,Cama Caliente
;   temperatureNumber,0,0
;   temperatureSetpointCount,1,1
;   temperatureSetpointLayers,1,1
;   temperatureSetpointTemperatures,190,60
;   temperatureStabilizeAtStartup,1,1
;   temperatureHeatedBed,0,1
;   fanLayers,1,5
;   fanSpeeds,0,100
;   blipFanToFullPower,1
;   adjustSpeedForCooling,1
;   minSpeedLayerTime,15
;   minCoolingSpeedSlowdown,20
;   increaseFanForCooling,0
;   minFanLayerTime,45
;   maxCoolingFanSpeed,100
;   increaseFanForBridging,0
;   bridgingFanSpeed,100
;   use5D,1
;   relativeEdistances,0
;   allowEaxisZeroing,1
;   independentExtruderAxes,0
;   includeM10123,0
;   stickySupport,1
;   applyToolheadOffsets,0
;   gcodeXoffset,0
;   gcodeYoffset,0
;   gcodeZoffset,0
;   overrideMachineDefinition,1
;   machineTypeOverride,1
;   strokeXoverride,200
;   strokeYoverride,200
;   strokeZoverride,200
;   originOffsetXoverride,100
;   originOffsetYoverride,100
;   originOffsetZoverride,0
;   homeXdirOverride,0
;   homeYdirOverride,0
;   homeZdirOverride,1
;   flipXoverride,1
;   flipYoverride,-1
;   flipZoverride,1
;   toolheadOffsets,0,0|0,0|0,0|0,0|0,0|0,0
;   overrideFirmwareConfiguration,0
;   firmwareTypeOverride,RepRap (Marlin/Repetier/Sprinter)
;   GPXconfigOverride,r2
;   baudRateOverride,115200
;   overridePrinterModels,0
;   printerModelsOverride
;   startingGcode,G28 ; home all axes
;   layerChangeGcode,
;   retractionGcode,
;   toolChangeGcode,
;   endingGcode,M104 S0 ; turn off extruder,M140 S0 ; turn off bed,G28;,;G1 X5;,M84 ; disable motors,
;   exportFileFormat,gcode
;   celebration,0
;   celebrationSong,Random Song
;   postProcessing,
;   defaultSpeed,2700
;   outlineUnderspeed,0.5
;   solidInfillUnderspeed,0.8
;   supportUnderspeed,0.7
;   rapidXYspeed,6000
;   rapidZspeed,1002
;   minBridgingArea,50
;   bridgingExtraInflation,0
;   bridgingExtrusionMultiplier,1
;   bridgingSpeedMultiplier,1
;   useFixedBridgingAngle,0
;   fixedBridgingAngle,0
;   applyBridgingToPerimeters,0
;   filamentDiameters,1.75|1.75|1.75|1.75|1.75|1.75
;   filamentPricesPerKg,140|46|46|46|46|46
;   filamentDensities,1.18|1.25|1.25|1.25|1.25|1.25
;   useMinPrintHeight,0
;   minPrintHeight,0
;   useMaxPrintHeight,0
;   maxPrintHeight,0
;   useDiaphragm,1
;   diaphragmLayerInterval,10
;   robustSlicing,1
;   mergeAllIntoSolid,0
;   onlyRetractWhenCrossingOutline,1
;   retractBetweenLayers,1
;   useRetractionMinTravel,0
;   retractionMinTravel,3
;   retractWhileWiping,0
;   onlyWipeOutlines,1
;   avoidCrossingOutline,0
;   maxMovementDetourFactor,3
;   toolChangeRetractionDistance,12
;   toolChangeExtraRestartDistance,-0.5
;   toolChangeRetractionSpeed,600
;   externalThinWallType,0
;   internalThinWallType,2
;   thinWallAllowedOverlapPercentage,10
;   singleExtrusionMinLength,1
;   singleExtrusionMinPrintingWidthPercentage,50
;   singleExtrusionMaxPrintingWidthPercentage,200
;   singleExtrusionEndpointExtension,0.2
;   horizontalSizeCompensation,0
G90
M82
M106 S0
M140 S60
M190 S60
M104 S190 T0
M109 S190 T0
G28 ; home all axes
; process Llanta
; layer 1, Z = 0.400
T1
G92 E0.0000
G1 E-6.0000 F2400
; feature skirt
; tool H0.400 W0.720
G1 Z0.400 F1002
G1 X28.625 Y-2.504 F6000
G1 E0.0000 F2400
G92 E0.0000
G1 X29.190 Y-1.909 E0.0786 F1350
G1 X28.927 Y2.982 E0.5477
G1 X28.898 Y3.253 E0.5739
G1 X28.441 Y6.065 E0.8468
G1 X28.383 Y6.332 E0.8729
G1 X27.627 Y9.079 E1.1459
G1 X27.540 Y9.338 E1.1720
G1 X26.494 Y11.989 E1.4450
G1 X26.381 Y12.237 E1.4711
G1 X25.056 Y14.760 E1.7440
G1 X24.917 Y14.994 E1.7702
G1 X23.330 Y17.361 E2.0431
G1 X23.166 Y17.579 E2.0693
G1 X21.334 Y19.761 E2.3422
G1 X21.148 Y19.961 E2.3683
G1 X19.093 Y21.935 E2.6413
G1 X18.886 Y22.113 E2.6674
G1 X16.632 Y23.855 E2.9403
G1 X16.407 Y24.010 E2.9665
G1 X13.979 Y25.500 E3.2394
G1 X13.739 Y25.630 E3.2656
G1 X11.164 Y26.852 E3.5385
G1 X10.912 Y26.955 E3.5646
G1 X8.222 Y27.894 E3.8376
G1 X7.960 Y27.970 E3.8637
G1 X3.189 Y29.078 E4.3328
G1 X2.504 Y28.625 E4.4114
G1 X1.909 Y29.190 E4.4901
G1 X-2.982 Y28.927 E4.9592
G1 X-3.253 Y28.898 E4.9853
G1 X-6.065 Y28.441 E5.2582
G1 X-6.332 Y28.383 E5.2844
G1 X-9.079 Y27.627 E5.5573
G1 X-9.338 Y27.540 E5.5835
G1 X-11.989 Y26.494 E5.8564
G1 X-12.237 Y26.381 E5.8825
G1 X-14.760 Y25.056 E6.1555
G1 X-14.994 Y24.917 E6.1816
G1 X-17.361 Y23.330 E6.4546
G1 X-17.579 Y23.166 E6.4807
G1 X-19.761 Y21.334 E6.7536
G1 X-19.961 Y21.148 E6.7798
G1 X-21.935 Y19.093 E7.0527
G1 X-22.113 Y18.886 E7.0788
G1 X-23.855 Y16.632 E7.3518
G1 X-24.010 Y16.407 E7.3779
G1 X-25.500 Y13.979 E7.6509
G1 X-25.630 Y13.739 E7.6770
G1 X-26.852 Y11.164 E7.9499
G1 X-26.955 Y10.912 E7.9761
G1 X-27.894 Y8.222 E8.2490
G1 X-27.970 Y7.960 E8.2751
G1 X-29.078 Y3.189 E8.7443
G1 X-28.625 Y2.504 E8.8229
G1 X-29.190 Y1.909 E8.9015
G1 X-28.927 Y-2.982 E9.3706
G1 X-28.898 Y-3.253 E9.3968
G1 X-28.441 Y-6.065 E9.6697
G1 X-28.383 Y-6.332 E9.6958
G1 X-27.627 Y-9.079 E9.9688
G1 X-27.540 Y-9.338 E9.9949
G1 X-26.494 Y-11.989 E10.2678
G1 X-26.381 Y-12.237 E10.2940
G1 X-25.056 Y-14.760 E10.5669
G1 X-24.917 Y-14.994 E10.5931
G1 X-23.330 Y-17.361 E10.8660
G1 X-23.166 Y-17.579 E10.8921
G1 X-21.334 Y-19.761 E11.1651
G1 X-21.148 Y-19.961 E11.1912
G1 X-19.093 Y-21.935 E11.4641
G1 X-18.886 Y-22.113 E11.4903
G1 X-16.632 Y-23.855 E11.7632
G1 X-16.407 Y-24.010 E11.7894
G1 X-13.979 Y-25.500 E12.0623
G1 X-13.739 Y-25.630 E12.0884
G1 X-11.164 Y-26.852 E12.3614
G1 X-10.912 Y-26.955 E12.3875
G1 X-8.222 Y-27.894 E12.6604
G1 X-7.960 Y-27.970 E12.6866
G1 X-3.189 Y-29.078 E13.1557
G1 X-2.504 Y-28.625 E13.2343
G1 X-1.909 Y-29.190 E13.3129
G1 X2.982 Y-28.927 E13.7821
G1 X3.253 Y-28.898 E13.8082
G1 X6.065 Y-28.441 E14.0811
G1 X6.332 Y-28.383 E14.1073
G1 X9.079 Y-27.627 E14.3802
G1 X9.338 Y-27.540 E14.4063
G1 X11.989 Y-26.494 E14.6793
G1 X12.237 Y-26.381 E14.7054
G1 X14.760 Y-25.056 E14.9784
G1 X14.994 Y-24.917 E15.0045
G1 X17.361 Y-23.330 E15.2774
G1 X17.579 Y-23.166 E15.3036
G1 X19.761 Y-21.334 E15.5765
G1 X19.961 Y-21.148 E15.6026
G1 X21.935 Y-19.093 E15.8756
G1 X22.113 Y-18.886 E15.9017
G1 X23.855 Y-16.632 E16.1747
G1 X24.010 Y-16.407 E16.2008
G1 X25.500 Y-13.979 E16.4737
G1 X25.630 Y-13.739 E16.4999
G1 X26.852 Y-11.164 E16.7728
G1 X26.955 Y-10.912 E16.7989
G1 X27.894 Y-8.222 E17.0719
G1 X27.970 Y-7.960 E17.0980
G1 X29.078 Y-3.189 E17.5671
G1 X28.625 Y-2.504 E17.6458
G92 E0.0000
G1 E-6.0000 F2400
G1 X28.307 Y-3.328 F6000
G1 E0.0000 F2400
G92 E0.0000
G1 X27.709 Y-2.424 E0.1037 F1350
G1 X28.454 Y-1.638 E0.2075
G1 X28.209 Y2.924 E0.6451
G1 X28.184 Y3.157 E0.6675
G1 X27.733 Y5.931 E0.9368
G1 X27.683 Y6.160 E0.9592
G1 X26.938 Y8.870 E1.2284
G1 X26.863 Y9.092 E1.2509
G1 X25.832 Y11.706 E1.5201
G1 X25.734 Y11.919 E1.5425
G1 X24.428 Y14.408 E1.8118
G1 X24.308 Y14.609 E1.8342
G1 X22.743 Y16.943 E2.1034
G1 X22.602 Y17.131 E2.1259
G1 X20.795 Y19.284 E2.3951
G1 X20.635 Y19.455 E2.4175
G1 X18.608 Y21.402 E2.6867
G1 X18.431 Y21.555 E2.7092
G1 X16.207 Y23.273 E2.9784
G1 X16.014 Y23.406 E3.0008
G1 X13.618 Y24.877 E3.2701
G1 X13.413 Y24.988 E3.2925
G1 X10.873 Y26.193 E3.5617
G1 X10.657 Y26.282 E3.5842
G1 X8.003 Y27.208 E3.8534
G1 X7.778 Y27.273 E3.8758
G1 X3.328 Y28.307 E4.3135
G1 X2.424 Y27.709 E4.4172
G1 X1.638 Y28.454 E4.5209
G1 X-2.924 Y28.209 E4.9585
G1 X-3.157 Y28.184 E4.9810
G1 X-5.931 Y27.733 E5.2502
G1 X-6.160 Y27.683 E5.2726
G1 X-8.870 Y26.938 E5.5419
G1 X-9.092 Y26.863 E5.5643
G1 X-11.706 Y25.832 E5.8335
G1 X-11.919 Y25.734 E5.8560
G1 X-14.408 Y24.428 E6.1252
G1 X-14.609 Y24.308 E6.1476
G1 X-16.943 Y22.743 E6.4169
G1 X-17.131 Y22.602 E6.4393
G1 X-19.284 Y20.795 E6.7085
G1 X-19.455 Y20.635 E6.7310
G1 X-21.402 Y18.608 E7.0002
G1 X-21.555 Y18.431 E7.0226
G1 X-23.273 Y16.207 E7.2919
G1 X-23.406 Y16.014 E7.3143
G1 X-24.877 Y13.618 E7.5835
G1 X-24.988 Y13.413 E7.6060
G1 X-26.193 Y10.873 E7.8752
G1 X-26.282 Y10.657 E7.8976
G1 X-27.208 Y8.003 E8.1669
G1 X-27.273 Y7.778 E8.1893
G1 X-28.307 Y3.328 E8.6269
G1 X-27.709 Y2.424 E8.7307
G1 X-28.454 Y1.638 E8.8344
G1 X-28.209 Y-2.924 E9.2720
G1 X-28.184 Y-3.157 E9.2944
G1 X-27.733 Y-5.931 E9.5637
G1 X-27.683 Y-6.160 E9.5861
G1 X-26.938 Y-8.870 E9.8553
G1 X-26.863 Y-9.092 E9.8778
G1 X-25.832 Y-11.706 E10.1470
G1 X-25.734 Y-11.919 E10.1694
G1 X-24.428 Y-14.408 E10.4387
G1 X-24.308 Y-14.609 E10.4611
G1 X-22.743 Y-16.943 E10.7303
G1 X-22.602 Y-17.131 E10.7528
G1 X-20.795 Y-19.284 E11.0220
G1 X-20.635 Y-19.455 E11.0444
G1 X-18.608 Y-21.402 E11.3137
G1 X-18.431 Y-21.555 E11.3361
G1 X-16.207 Y-23.273 E11.6053
G1 X-16.014 Y-23.406 E11.6278
G1 X-13.618 Y-24.877 E11.8970
G1 X-13.413 Y-24.988 E11.9194
G1 X-10.873 Y-26.193 E12.1887
G1 X-10.657 Y-26.282 E12.2111
G1 X-8.003 Y-27.208 E12.4803
G1 X-7.778 Y-27.273 E12.5028
G1 X-3.328 Y-28.307 E12.9404
G1 X-2.424 Y-27.709 E13.0441
G1 X-1.638 Y-28.454 E13.1479
G1 X2.924 Y-28.209 E13.5855
G1 X3.157 Y-28.184 E13.6079
G1 X5.931 Y-27.733 E13.8771
G1 X6.160 Y-27.683 E13.8996
G1 X8.870 Y-26.938 E14.1688
G1 X9.092 Y-26.863 E14.1912
G1 X11.706 Y-25.832 E14.4605
G1 X11.919 Y-25.734 E14.4829
G1 X14.408 Y-24.428 E14.7521
G1 X14.609 Y-24.308 E14.7746
G1 X16.943 Y-22.743 E15.0438
G1 X17.131 Y-22.602 E15.0662
G1 X19.284 Y-20.795 E15.3355
G1 X19.455 Y-20.635 E15.3579
G1 X21.402 Y-18.608 E15.6271
G1 X21.555 Y-18.431 E15.6496
G1 X23.273 Y-16.207 E15.9188
G1 X23.406 Y-16.014 E15.9412
G1 X24.877 Y-13.618 E16.2105
G1 X24.988 Y-13.413 E16.2329
G1 X26.193 Y-10.873 E16.5021
G1 X26.282 Y-10.657 E16.5246
G1 X27.208 Y-8.003 E16.7938
G1 X27.273 Y-7.778 E16.8162
G1 X28.307 Y-3.328 E17.2538
G92 E0.0000
G1 E-6.0000 F2400
; feature inner perimeter
G1 X21.452 Y-5.610 F6000
G1 E0.0000 F2400
G92 E0.0000
G1 X20.641 Y-5.467 E0.0789 F1013
G1 X21.118 Y-1.847 E0.4286
G1 X21.277 Y1.800 E0.7784
G1 X22.101 Y1.800 E0.8573
G1 X22.070 Y2.379 E0.9129
G1 X21.687 Y4.732 E1.1411
G1 X21.055 Y7.029 E1.3694
G1 X20.180 Y9.246 E1.5976
G1 X19.073 Y11.356 E1.8259
G1 X17.745 Y13.335 E2.0542
G1 X16.214 Y15.160 E2.2824
G1 X14.495 Y16.811 E2.5107
G1 X12.610 Y18.268 E2.7389
G1 X10.578 Y19.515 E2.9672
G1 X8.426 Y20.536 E3.1955
G1 X6.176 Y21.321 E3.4237
G1 X5.610 Y21.452 E3.4793
G1 X5.467 Y20.641 E3.5582
G1 X1.847 Y21.118 E3.9080
G1 X-1.800 Y21.277 E4.2577
G1 X-1.800 Y22.101 E4.3366
G1 X-2.379 Y22.070 E4.3922
G1 X-4.732 Y21.687 E4.6205
G1 X-7.029 Y21.055 E4.8487
G1 X-9.246 Y20.180 E5.0770
G1 X-11.356 Y19.073 E5.3052
G1 X-13.335 Y17.745 E5.5335
G1 X-15.160 Y16.214 E5.7618
G1 X-16.811 Y14.495 E5.9900
G1 X-18.268 Y12.610 E6.2183
G1 X-19.515 Y10.579 E6.4466
G1 X-20.536 Y8.426 E6.6748
G1 X-21.321 Y6.176 E6.9031
G1 X-21.452 Y5.610 E6.9587
G1 X-20.641 Y5.467 E7.0376
G1 X-21.118 Y1.847 E7.3873
G1 X-21.277 Y-1.800 E7.7370
G1 X-22.101 Y-1.800 E7.8159
G1 X-22.070 Y-2.379 E7.8715
G1 X-21.687 Y-4.732 E8.0998
G1 X-21.055 Y-7.029 E8.3281
G1 X-20.180 Y-9.246 E8.5563
G1 X-19.073 Y-11.356 E8.7846
G1 X-17.745 Y-13.335 E9.0129
G1 X-16.214 Y-15.160 E9.2411
G1 X-14.495 Y-16.811 E9.4694
G1 X-12.610 Y-18.268 E9.6976
G1 X-10.579 Y-19.515 E9.9259
G1 X-8.426 Y-20.536 E10.1542
G1 X-6.176 Y-21.321 E10.3824
G1 X-5.610 Y-21.452 E10.4380
G1 X-5.467 Y-20.641 E10.5169
G1 X-1.847 Y-21.118 E10.8667
G1 X1.800 Y-21.277 E11.2164
G1 X1.800 Y-22.101 E11.2953
G1 X2.379 Y-22.070 E11.3509
G1 X4.732 Y-21.687 E11.5791
G1 X7.029 Y-21.055 E11.8074
G1 X9.246 Y-20.180 E12.0357
G1 X11.356 Y-19.073 E12.2639
G1 X13.335 Y-17.745 E12.4922
G1 X15.160 Y-16.214 E12.7205
G1 X16.811 Y-14.495 E12.9487
G1 X18.268 Y-12.610 E13.1770
G1 X19.515 Y-10.578 E13.4052
G1 X20.536 Y-8.426 E13.6335
G1 X21.321 Y-6.176 E13.8618
G1 X21.452 Y-5.610 E13.9174
G1 X21.445 Y-4.878 F6000
G92 E0.0000
G1 X21.836 Y-1.910 E0.2867 F1013
G1 X21.966 Y1.080 E0.5734
G1 X22.860 Y1.080 E0.6591
G1 X22.786 Y2.457 E0.7912
G1 X22.392 Y4.885 E1.0268
G1 X21.739 Y7.258 E1.2625
G1 X20.836 Y9.546 E1.4982
G1 X19.692 Y11.725 E1.7339
G1 X18.322 Y13.768 E1.9696
G1 X16.740 Y15.653 E2.2052
G1 X14.966 Y17.357 E2.4409
G1 X13.019 Y18.861 E2.6766
G1 X10.922 Y20.148 E2.9123
G1 X8.699 Y21.203 E3.1479
G1 X6.376 Y22.014 E3.3836
G1 X5.033 Y22.326 E3.5157
G1 X4.878 Y21.445 E3.6013
G1 X1.910 Y21.836 E3.8881
G1 X-1.080 Y21.966 E4.1748
G1 X-1.080 Y22.860 E4.2604
G1 X-2.457 Y22.786 E4.3925
G1 X-4.885 Y22.392 E4.6282
G1 X-7.258 Y21.739 E4.8639
G1 X-9.546 Y20.836 E5.0995
G1 X-11.725 Y19.692 E5.3352
G1 X-13.768 Y18.322 E5.5709
G1 X-15.653 Y16.740 E5.8066
G1 X-17.357 Y14.966 E6.0423
G1 X-18.861 Y13.019 E6.2779
G1 X-20.148 Y10.922 E6.5136
G1 X-21.203 Y8.699 E6.7493
G1 X-22.014 Y6.376 E6.9850
G1 X-22.326 Y5.033 E7.1170
G1 X-21.445 Y4.878 E7.2027
G1 X-21.836 Y1.910 E7.4894
G1 X-21.966 Y-1.080 E7.7761
G1 X-22.860 Y-1.080 E7.8618
G1 X-22.786 Y-2.457 E7.9939
G1 X-22.392 Y-4.885 E8.2295
G1 X-21.739 Y-7.258 E8.4652
G1 X-20.836 Y-9.546 E8.7009
G1 X-19.692 Y-11.725 E8.9366
G1 X-18.322 Y-13.768 E9.1723
G1 X-16.740 Y-15.653 E9.4079
G1 X-14.966 Y-17.357 E9.6436
G1 X-13.019 Y-18.861 E9.8793
G1 X-10.922 Y-20.148 E10.1150
G1 X-8.699 Y-21.203 E10.3506
G1 X-6.376 Y-22.014 E10.5863
G1 X-5.033 Y-22.326 E10.7184
G1 X-4.878 Y-21.445 E10.8040
G1 X-1.910 Y-21.836 E11.0908
G1 X1.080 Y-21.966 E11.3775
G1 X1.080 Y-22.860 E11.4631
G1 X2.457 Y-22.786 E11.5952
G1 X4.885 Y-22.392 E11.8309
