; G-Code generated by Simplify3D(R) Version 4.1.2
; Dec 1, 2022 at 9:30:57 PM
; Settings Summary
;   processName,molde
;   applyToModels,molde sumo
;   profileName,PETG timer 0.3 (modified)
;   profileVersion,2022-10-21 10:48:26
;   baseProfile,Default (modified)
;   printMaterial,PLA
;   printQuality,High
;   printExtruders,
;   extruderName,Primary Extruder
;   extruderToolheadNumber,1
;   extruderDiameter,0.6
;   extruderAutoWidth,1
;   extruderWidth,0.72
;   extrusionMultiplier,0.8
;   extruderUseRetract,1
;   extruderRetractionDistance,6
;   extruderExtraRestartDistance,0
;   extruderRetractionZLift,0
;   extruderRetractionSpeed,2400
;   extruderUseCoasting,0
;   extruderCoastingDistance,0.2
;   extruderUseWipe,0
;   extruderWipeDistance,5
;   primaryExtruder,0
;   layerHeight,0.4
;   topSolidLayers,5
;   bottomSolidLayers,5
;   perimeterOutlines,2
;   printPerimetersInsideOut,1
;   startPointOption,2
;   startPointOriginX,0
;   startPointOriginY,0
;   sequentialIslands,0
;   spiralVaseMode,0
;   firstLayerHeightPercentage,100
;   firstLayerWidthPercentage,100
;   firstLayerUnderspeed,0.5
;   useRaft,1
;   raftExtruder,0
;   raftTopLayers,2
;   raftBaseLayers,2
;   raftOffset,3
;   raftSeparationDistance,0.14
;   raftTopInfill,100
;   aboveRaftSpeedMultiplier,0.3
;   useSkirt,1
;   skirtExtruder,0
;   skirtLayers,2
;   skirtOutlines,2
;   skirtOffset,4
;   usePrimePillar,0
;   primePillarExtruder,999
;   primePillarWidth,12
;   primePillarLocation,7
;   primePillarSpeedMultiplier,1
;   useOozeShield,0
;   oozeShieldExtruder,999
;   oozeShieldOffset,2
;   oozeShieldOutlines,1
;   oozeShieldSidewallShape,1
;   oozeShieldSidewallAngle,30
;   oozeShieldSpeedMultiplier,1
;   infillExtruder,0
;   internalInfillPattern,Full Honeycomb
;   externalInfillPattern,Rectilinear
;   infillPercentage,30
;   outlineOverlapPercentage,15
;   infillExtrusionWidthPercentage,100
;   minInfillLength,5
;   infillLayerInterval,1
;   internalInfillAngles,0,120,-120
;   overlapInternalInfillAngles,0
;   externalInfillAngles,45,-45
;   generateSupport,1
;   supportExtruder,0
;   supportInfillPercentage,40
;   supportExtraInflation,0
;   supportBaseLayers,1
;   denseSupportExtruder,0
;   denseSupportLayers,0
;   denseSupportInfillPercentage,70
;   supportLayerInterval,1
;   supportHorizontalPartOffset,0.3
;   supportUpperSeparationLayers,1
;   supportLowerSeparationLayers,1
;   supportType,0
;   supportGridSpacing,4
;   maxOverhangAngle,45
;   supportAngles,0
;   temperatureName,Primary Extruder,Cama Caliente
;   temperatureNumber,0,0
;   temperatureSetpointCount,1,1
;   temperatureSetpointLayers,1,1
;   temperatureSetpointTemperatures,190,60
;   temperatureStabilizeAtStartup,1,1
;   temperatureHeatedBed,0,1
;   fanLayers,1,5
;   fanSpeeds,0,100
;   blipFanToFullPower,1
;   adjustSpeedForCooling,1
;   minSpeedLayerTime,15
;   minCoolingSpeedSlowdown,20
;   increaseFanForCooling,0
;   minFanLayerTime,45
;   maxCoolingFanSpeed,100
;   increaseFanForBridging,0
;   bridgingFanSpeed,100
;   use5D,1
;   relativeEdistances,0
;   allowEaxisZeroing,1
;   independentExtruderAxes,0
;   includeM10123,0
;   stickySupport,1
;   applyToolheadOffsets,0
;   gcodeXoffset,0
;   gcodeYoffset,0
;   gcodeZoffset,0
;   overrideMachineDefinition,1
;   machineTypeOverride,1
;   strokeXoverride,200
;   strokeYoverride,200
;   strokeZoverride,200
;   originOffsetXoverride,100
;   originOffsetYoverride,100
;   originOffsetZoverride,0
;   homeXdirOverride,0
;   homeYdirOverride,0
;   homeZdirOverride,1
;   flipXoverride,1
;   flipYoverride,-1
;   flipZoverride,1
;   toolheadOffsets,0,0|0,0|0,0|0,0|0,0|0,0
;   overrideFirmwareConfiguration,0
;   firmwareTypeOverride,RepRap (Marlin/Repetier/Sprinter)
;   GPXconfigOverride,r2
;   baudRateOverride,115200
;   overridePrinterModels,0
;   printerModelsOverride
;   startingGcode,G28 ; home all axes
;   layerChangeGcode,
;   retractionGcode,
;   toolChangeGcode,
;   endingGcode,M104 S0 ; turn off extruder,M140 S0 ; turn off bed,G28;,;G1 X5;,M84 ; disable motors,
;   exportFileFormat,gcode
;   celebration,0
;   celebrationSong,Random Song
;   postProcessing,
;   defaultSpeed,2700
;   outlineUnderspeed,0.5
;   solidInfillUnderspeed,0.8
;   supportUnderspeed,0.7
;   rapidXYspeed,6000
;   rapidZspeed,1002
;   minBridgingArea,50
;   bridgingExtraInflation,0
;   bridgingExtrusionMultiplier,1
;   bridgingSpeedMultiplier,1
;   useFixedBridgingAngle,0
;   fixedBridgingAngle,0
;   applyBridgingToPerimeters,0
;   filamentDiameters,1.75|1.75|1.75|1.75|1.75|1.75
;   filamentPricesPerKg,140|46|46|46|46|46
;   filamentDensities,1.18|1.25|1.25|1.25|1.25|1.25
;   useMinPrintHeight,0
;   minPrintHeight,0
;   useMaxPrintHeight,0
;   maxPrintHeight,0
;   useDiaphragm,1
;   diaphragmLayerInterval,10
;   robustSlicing,1
;   mergeAllIntoSolid,0
;   onlyRetractWhenCrossingOutline,1
;   retractBetweenLayers,1
;   useRetractionMinTravel,0
;   retractionMinTravel,3
;   retractWhileWiping,0
;   onlyWipeOutlines,1
;   avoidCrossingOutline,0
;   maxMovementDetourFactor,3
;   toolChangeRetractionDistance,12
;   toolChangeExtraRestartDistance,-0.5
;   toolChangeRetractionSpeed,600
;   externalThinWallType,0
;   internalThinWallType,2
;   thinWallAllowedOverlapPercentage,10
;   singleExtrusionMinLength,1
;   singleExtrusionMinPrintingWidthPercentage,50
;   singleExtrusionMaxPrintingWidthPercentage,200
;   singleExtrusionEndpointExtension,0.2
;   horizontalSizeCompensation,0
G90
M82
M106 S0
M140 S60
M190 S60
M104 S190 T0
M109 S190 T0
G28 ; home all axes
; process molde
; layer 1, Z = 0.750
T1
G92 E0.0000
G1 E-6.0000 F2400
; feature skirt
; tool H0.750 W0.720
G1 Z0.750 F1002
G1 X-21.581 Y31.307 F6000
G1 E0.0000 F2400
G92 E0.0000
G1 X-21.654 Y31.260 E0.0157 F1350
G1 X-21.812 Y31.154 E0.0498
G1 X-21.883 Y31.104 E0.0654
G1 X-22.731 Y30.489 E0.2535
G1 X-22.784 Y30.449 E0.2654
G1 X-22.899 Y30.361 E0.2914
G1 X-22.951 Y30.320 E0.3034
G1 X-24.902 Y28.742 E0.7540
G1 X-24.991 Y28.666 E0.7750
G1 X-25.182 Y28.497 E0.8209
G1 X-25.268 Y28.417 E0.8419
G1 X-27.749 Y26.001 E1.4639
G1 X-27.843 Y25.905 E1.4881
G1 X-28.044 Y25.688 E1.5411
G1 X-28.133 Y25.586 E1.5654
G1 X-30.356 Y22.905 E2.1910
G1 X-30.439 Y22.798 E2.2153
G1 X-30.615 Y22.561 E2.2683
G1 X-30.693 Y22.451 E2.2926
G1 X-32.618 Y19.548 E2.9181
G1 X-32.690 Y19.434 E2.9424
G1 X-32.840 Y19.180 E2.9954
G1 X-32.905 Y19.061 E3.0197
G1 X-34.511 Y15.970 E3.6453
G1 X-34.570 Y15.849 E3.6696
G1 X-34.692 Y15.580 E3.7226
G1 X-34.745 Y15.456 E3.7469
G1 X-36.013 Y12.212 E4.3724
G1 X-36.059 Y12.084 E4.3967
G1 X-36.152 Y11.804 E4.4497
G1 X-36.191 Y11.675 E4.4740
G1 X-37.107 Y8.314 E5.0996
G1 X-37.139 Y8.183 E5.1239
G1 X-37.202 Y7.895 E5.1769
G1 X-37.227 Y7.762 E5.2012
G1 X-37.781 Y4.323 E5.8267
G1 X-37.799 Y4.189 E5.8510
G1 X-37.830 Y3.896 E5.9040
G1 X-37.841 Y3.761 E5.9283
G1 X-38.026 Y0.283 E6.5539
G1 X-38.030 Y0.148 E6.5782
G1 X-38.030 Y-0.148 E6.6312
G1 X-38.026 Y-0.283 E6.6555
G1 X-37.841 Y-3.761 E7.2810
G1 X-37.830 Y-3.896 E7.3053
G1 X-37.799 Y-4.189 E7.3583
G1 X-37.781 Y-4.323 E7.3826
G1 X-37.227 Y-7.762 E8.0082
G1 X-37.202 Y-7.895 E8.0325
G1 X-37.139 Y-8.183 E8.0855
G1 X-37.107 Y-8.315 E8.1098
G1 X-36.191 Y-11.675 E8.7353
G1 X-36.152 Y-11.804 E8.7596
G1 X-36.059 Y-12.084 E8.8126
G1 X-36.013 Y-12.212 E8.8369
G1 X-34.745 Y-15.456 E9.4625
G1 X-34.692 Y-15.580 E9.4868
G1 X-34.570 Y-15.849 E9.5398
G1 X-34.511 Y-15.970 E9.5640
G1 X-32.905 Y-19.061 E10.1896
G1 X-32.840 Y-19.179 E10.2139
G1 X-32.690 Y-19.434 E10.2669
G1 X-32.618 Y-19.548 E10.2912
G1 X-30.693 Y-22.451 E10.9168
G1 X-30.615 Y-22.561 E10.9410
G1 X-30.439 Y-22.798 E10.9940
G1 X-30.356 Y-22.905 E11.0183
G1 X-28.133 Y-25.586 E11.6439
G1 X-28.044 Y-25.688 E11.6682
G1 X-27.843 Y-25.905 E11.7212
G1 X-27.749 Y-26.001 E11.7455
G1 X-25.254 Y-28.431 E12.3711
G1 X-25.154 Y-28.523 E12.3953
G1 X-24.932 Y-28.717 E12.4483
G1 X-24.828 Y-28.804 E12.4726
G1 X-22.088 Y-30.955 E13.0982
G1 X-21.980 Y-31.035 E13.1225
G1 X-21.738 Y-31.205 E13.1755
G1 X-21.626 Y-31.280 E13.1998
G1 X-18.673 Y-33.127 E13.8253
G1 X-18.556 Y-33.196 E13.8496
G1 X-18.298 Y-33.339 E13.9026
G1 X-18.178 Y-33.401 E13.9269
G1 X-15.046 Y-34.924 E14.5525
G1 X-14.923 Y-34.980 E14.5768
G1 X-14.651 Y-35.095 E14.6298
G1 X-14.525 Y-35.144 E14.6541
G1 X-11.249 Y-36.326 E15.2796
G1 X-11.120 Y-36.368 E15.3039
G1 X-10.838 Y-36.453 E15.3569
G1 X-10.707 Y-36.489 E15.3812
G1 X-7.324 Y-37.316 E16.0068
G1 X-7.191 Y-37.344 E16.0311
G1 X-6.901 Y-37.399 E16.0841
G1 X-6.768 Y-37.420 E16.1084
G1 X-3.316 Y-37.883 E16.7339
G1 X-3.181 Y-37.897 E16.7582
G1 X-2.887 Y-37.921 E16.8112
G1 X-2.752 Y-37.928 E16.8355
G1 X0.730 Y-38.020 E17.4611
G1 X0.865 Y-38.020 E17.4853
G1 X1.160 Y-38.013 E17.5383
G1 X1.295 Y-38.005 E17.5626
G1 X4.767 Y-37.727 E18.1882
G1 X4.901 Y-37.713 E18.2125
G1 X5.194 Y-37.674 E18.2655
G1 X5.327 Y-37.652 E18.2898
G1 X8.750 Y-37.007 E18.9154
G1 X8.882 Y-36.978 E18.9396
G1 X9.169 Y-36.908 E18.9926
G1 X9.299 Y-36.873 E19.0169
G1 X12.634 Y-35.867 E19.6425
G1 X12.762 Y-35.825 E19.6668
G1 X13.040 Y-35.725 E19.7198
G1 X13.166 Y-35.676 E19.7441
G1 X16.375 Y-34.321 E20.3697
G1 X16.498 Y-34.265 E20.3939
G1 X16.763 Y-34.136 E20.4469
G1 X16.883 Y-34.074 E20.4712
G1 X19.930 Y-32.386 E21.0968
G1 X20.047 Y-32.318 E21.1211
G1 X20.297 Y-32.161 E21.1741
G1 X20.410 Y-32.086 E21.1984
G1 X23.260 Y-30.084 E21.8240
G1 X23.369 Y-30.004 E21.8483
G1 X23.601 Y-29.821 E21.9013
G1 X23.705 Y-29.735 E21.9255
G1 X26.326 Y-27.442 E22.5511
G1 X26.425 Y-27.350 E22.5754
G1 X26.637 Y-27.144 E22.6284
G1 X26.731 Y-27.047 E22.6527
G1 X29.068 Y-24.516 E23.2714
G1 X29.134 Y-24.441 E23.2894
G1 X29.276 Y-24.274 E23.3288
G1 X29.340 Y-24.196 E23.3468
G1 X30.401 Y-22.847 E23.6550
G1 X30.442 Y-22.794 E23.6671
G1 X30.529 Y-22.677 E23.6934
G1 X30.569 Y-22.622 E23.7054
G1 X31.629 Y-21.117 E24.0361
G1 X31.686 Y-21.031 E24.0546
G1 X31.808 Y-20.843 E24.0950
G1 X31.862 Y-20.755 E24.1135
G1 X33.612 Y-17.785 E24.7327
G1 X33.678 Y-17.666 E24.7570
G1 X33.814 Y-17.404 E24.8100
G1 X33.873 Y-17.283 E24.8343
G1 X35.312 Y-14.111 E25.4599
G1 X35.365 Y-13.986 E25.4841
G1 X35.472 Y-13.712 E25.5371
G1 X35.518 Y-13.584 E25.5614
G1 X36.612 Y-10.278 E26.1870
G1 X36.651 Y-10.148 E26.2113
G1 X36.729 Y-9.863 E26.2643
G1 X36.761 Y-9.732 E26.2886
G1 X37.497 Y-6.328 E26.9142
G1 X37.522 Y-6.195 E26.9385
G1 X37.569 Y-5.903 E26.9914
G1 X37.587 Y-5.769 E27.0157
G1 X37.954 Y-2.343 E27.6347
G1 X37.962 Y-2.242 E27.6529
G1 X37.977 Y-2.021 E27.6926
G1 X37.982 Y-1.920 E27.7108
G1 X38.029 Y-0.141 E28.0304
G1 X38.030 Y-0.074 E28.0425
G1 X38.030 Y0.074 E28.0690
G1 X38.029 Y0.141 E28.0811
G1 X37.982 Y1.920 E28.4006
G1 X37.977 Y2.021 E28.4189
G1 X37.962 Y2.242 E28.4586
G1 X37.954 Y2.343 E28.4768
G1 X37.587 Y5.769 E29.0958
G1 X37.569 Y5.903 E29.1200
G1 X37.522 Y6.195 E29.1730
G1 X37.497 Y6.328 E29.1973
G1 X36.761 Y9.732 E29.8229
G1 X36.729 Y9.863 E29.8472
G1 X36.651 Y10.148 E29.9002
G1 X36.612 Y10.278 E29.9245
G1 X35.518 Y13.584 E30.5500
G1 X35.473 Y13.711 E30.5743
G1 X35.365 Y13.986 E30.6273
G1 X35.312 Y14.111 E30.6516
G1 X33.873 Y17.283 E31.2772
G1 X33.814 Y17.404 E31.3015
G1 X33.678 Y17.666 E31.3545
G1 X33.612 Y17.785 E31.3788
G1 X31.844 Y20.785 E32.0043
G1 X31.773 Y20.900 E32.0286
G1 X31.609 Y21.146 E32.0816
G1 X31.532 Y21.257 E32.1059
G1 X29.454 Y24.053 E32.7315
G1 X29.371 Y24.159 E32.7558
G1 X29.183 Y24.386 E32.8088
G1 X29.094 Y24.488 E32.8331
G1 X26.731 Y27.047 E33.4586
G1 X26.637 Y27.144 E33.4829
G1 X26.425 Y27.350 E33.5359
G1 X26.326 Y27.442 E33.5602
G1 X23.705 Y29.735 E34.1858
G1 X23.600 Y29.821 E34.2101
G1 X23.368 Y30.004 E34.2631
G1 X23.260 Y30.084 E34.2874
G1 X20.410 Y32.086 E34.9129
G1 X20.297 Y32.161 E34.9372
G1 X20.047 Y32.318 E34.9902
G1 X19.930 Y32.386 E35.0145
G1 X16.883 Y34.074 E35.6401
G1 X16.763 Y34.136 E35.6644
G1 X16.498 Y34.265 E35.7174
G1 X16.375 Y34.321 E35.7417
G1 X13.166 Y35.676 E36.3672
G1 X13.040 Y35.725 E36.3915
G1 X12.762 Y35.825 E36.4445
G1 X12.634 Y35.867 E36.4688
G1 X9.299 Y36.873 E37.0944
G1 X9.169 Y36.908 E37.1187
G1 X8.882 Y36.978 E37.1717
G1 X8.750 Y37.007 E37.1960
G1 X5.327 Y37.652 E37.8215
G1 X5.194 Y37.674 E37.8459
G1 X4.901 Y37.713 E37.8988
G1 X4.767 Y37.727 E37.9231
G1 X1.295 Y38.005 E38.5487
G1 X1.160 Y38.013 E38.5730
G1 X0.865 Y38.020 E38.6260
G1 X0.730 Y38.020 E38.6503
G1 X-2.752 Y37.928 E39.2758
G1 X-2.887 Y37.921 E39.3001
G1 X-3.181 Y37.897 E39.3531
G1 X-3.316 Y37.883 E39.3774
G1 X-6.768 Y37.420 E40.0030
G1 X-6.901 Y37.399 E40.0272
G1 X-7.191 Y37.344 E40.0802
G1 X-7.324 Y37.316 E40.1045
G1 X-10.707 Y36.489 E40.7301
G1 X-10.838 Y36.453 E40.7544
G1 X-11.120 Y36.368 E40.8074
G1 X-11.249 Y36.326 E40.8317
G1 X-14.525 Y35.144 E41.4573
G1 X-14.651 Y35.095 E41.4816
G1 X-14.923 Y34.980 E41.5345
G1 X-15.046 Y34.924 E41.5588
G1 X-18.178 Y33.401 E42.1844
G1 X-18.298 Y33.339 E42.2087
G1 X-18.556 Y33.196 E42.2617
G1 X-18.673 Y33.127 E42.2860
G1 X-21.581 Y31.307 E42.9021
G92 E0.0000
G1 E-6.0000 F2400
G1 X-21.194 Y30.700 F6000
G1 E0.0000 F2400
G92 E0.0000
G1 X-21.257 Y30.660 E0.0134 F1350
G1 X-21.404 Y30.560 E0.0454
G1 X-21.465 Y30.517 E0.0588
G1 X-22.304 Y29.909 E0.2449
G1 X-22.350 Y29.875 E0.2551
G1 X-22.457 Y29.792 E0.2794
G1 X-22.502 Y29.757 E0.2897
G1 X-24.443 Y28.187 E0.7380
G1 X-24.520 Y28.123 E0.7561
G1 X-24.698 Y27.964 E0.7989
G1 X-24.772 Y27.896 E0.8169
G1 X-27.240 Y25.492 E1.4357
G1 X-27.321 Y25.409 E1.4565
G1 X-27.508 Y25.206 E1.5061
G1 X-27.584 Y25.119 E1.5269
G1 X-29.795 Y22.453 E2.1491
G1 X-29.867 Y22.361 E2.1699
G1 X-30.031 Y22.140 E2.2195
G1 X-30.098 Y22.045 E2.2403
G1 X-32.013 Y19.158 E2.8624
G1 X-32.075 Y19.060 E2.8833
G1 X-32.215 Y18.822 E2.9328
G1 X-32.271 Y18.721 E2.9537
G1 X-33.868 Y15.647 E3.5758
G1 X-33.919 Y15.543 E3.5967
G1 X-34.033 Y15.291 E3.6462
G1 X-34.078 Y15.184 E3.6671
G1 X-35.339 Y11.958 E4.2892
G1 X-35.379 Y11.849 E4.3100
G1 X-35.465 Y11.587 E4.3596
G1 X-35.499 Y11.476 E4.3804
G1 X-36.410 Y8.134 E5.0026
G1 X-36.438 Y8.022 E5.0234
G1 X-36.496 Y7.752 E5.0730
G1 X-36.518 Y7.638 E5.0938
G1 X-37.069 Y4.218 E5.7159
G1 X-37.084 Y4.103 E5.7368
G1 X-37.113 Y3.829 E5.7863
G1 X-37.123 Y3.713 E5.8072
G1 X-37.307 Y0.254 E6.4293
G1 X-37.310 Y0.138 E6.4502
G1 X-37.310 Y-0.138 E6.4997
G1 X-37.307 Y-0.254 E6.5206
G1 X-37.123 Y-3.713 E7.1427
G1 X-37.113 Y-3.829 E7.1636
G1 X-37.084 Y-4.103 E7.2131
G1 X-37.069 Y-4.218 E7.2339
G1 X-36.518 Y-7.638 E7.8561
G1 X-36.496 Y-7.752 E7.8769
G1 X-36.438 Y-8.022 E7.9265
G1 X-36.410 Y-8.134 E7.9473
G1 X-35.499 Y-11.476 E8.5694
G1 X-35.465 Y-11.587 E8.5903
G1 X-35.379 Y-11.849 E8.6398
G1 X-35.339 Y-11.958 E8.6607
G1 X-34.078 Y-15.184 E9.2828
G1 X-34.033 Y-15.291 E9.3037
G1 X-33.919 Y-15.543 E9.3532
G1 X-33.868 Y-15.647 E9.3741
G1 X-32.271 Y-18.721 E9.9962
G1 X-32.215 Y-18.822 E10.0170
G1 X-32.075 Y-19.060 E10.0666
G1 X-32.013 Y-19.158 E10.0874
G1 X-30.098 Y-22.045 E10.7096
G1 X-30.031 Y-22.140 E10.7304
G1 X-29.867 Y-22.361 E10.7800
G1 X-29.795 Y-22.453 E10.8008
G1 X-27.584 Y-25.119 E11.4229
G1 X-27.508 Y-25.206 E11.4438
G1 X-27.321 Y-25.409 E11.4933
G1 X-27.240 Y-25.492 E11.5142
G1 X-24.758 Y-27.909 E12.1363
G1 X-24.673 Y-27.988 E12.1572
G1 X-24.465 Y-28.169 E12.2067
G1 X-24.376 Y-28.243 E12.2276
G1 X-21.651 Y-30.382 E12.8497
G1 X-21.558 Y-30.452 E12.8705
G1 X-21.332 Y-30.610 E12.9201
G1 X-21.236 Y-30.674 E12.9409
G1 X-18.299 Y-32.512 E13.5631
G1 X-18.199 Y-32.571 E13.5839
G1 X-17.958 Y-32.704 E13.6335
G1 X-17.855 Y-32.758 E13.6543
G1 X-14.740 Y-34.273 E14.2764
G1 X-14.634 Y-34.321 E14.2973
G1 X-14.380 Y-34.428 E14.3468
G1 X-14.272 Y-34.470 E14.3677
G1 X-11.013 Y-35.645 E14.9898
G1 X-10.903 Y-35.682 E15.0106
G1 X-10.639 Y-35.761 E15.0602
G1 X-10.527 Y-35.792 E15.0810
